assets/logo-gnosis-grey.svg

<svg height="34" viewBox="0 0 200 34" width="200" xmlns="http://www.w3.org/2000/svg" xmlns:xlink="http://www.w3.org/1999/xlink"><mask id="a" fill="#fff"><path d="m0 33.8866667h199.885387v-33.8866667h-199.885387z" fill="#fff" fill-rule="evenodd"/></mask><g fill="#282138" fill-rule="evenodd"><path d="m114.498453 18.2182767v6.4036166c-1.776218 1.3313834-4.412321 2.2666667-6.819485 2.2666667-5.185959 0-9.2263606-3.8536167-9.2263606-8.81195s4.0977076-8.755 9.4269346-8.755c2.52149 0 5.014326.935 6.762177 2.4366667l-1.690258 2.1533333c-1.346991-1.2466667-3.237822-1.9833333-5.071919-1.9833333-3.581662 0-6.389399 2.6916666-6.389399 6.1483333 0 3.485 2.83639 6.1766667 6.418052 6.1766667 1.318338 0 2.779369-.4533334 4.040401-1.1897167v-4.8452833z"/><path d="m132.149054 26.74678-9.369627-12.4666667v12.4666667h-2.951289v-17.36833333h2.922636l9.426934 12.49500003v-12.49500003h2.922636v17.36833333z"/><path d="m142.378338 18.04839c0 3.4566667 2.893983 6.1766667 6.332378 6.1766667 3.438396 0 6.246132-2.72 6.246132-6.1766667s-2.807736-6.12-6.246132-6.12c-3.467048 0-6.332378 2.6916667-6.332378 6.12m15.616046 0c0 4.9583333-4.068768 8.8116667-9.312321 8.8116667-5.24384 0-9.312321-3.8533334-9.312321-8.8116667 0-4.9866667 4.068481-8.755 9.312321-8.755 5.27192 0 9.312321 3.7966667 9.312321 8.755"/><path d="m174.240573 11.0216383-1.232092 2.5783334c-1.91977-1.1333334-3.810888-1.615-5.157593-1.615-1.719197 0-2.865329.6516666-2.865329 1.8133333 0 3.7966667 9.484527 1.7566667 9.455587 8.0183333 0 3.1166667-2.75043 5.015-6.618625 5.015-2.751002 0-5.358452-1.105-7.192263-2.7483333l1.289398-2.5216667c1.805444 1.6433334 4.068768 2.5216667 5.960172 2.5216667 2.062751 0 3.295129-.765 3.295129-2.0966667 0-3.8816666-9.484527-1.7-9.484527-7.905 0-2.975 2.578796-4.84499997 6.389685-4.84499997 2.292263 0 4.527507.73666667 6.160458 1.78499997"/><path d="m179.054441 26.7466667h2.95129v-17.36833337h-2.95129z" mask="url(#a)"/><path d="m199.684928 11.0216383-1.232378 2.5783334c-1.919484-1.1333334-3.810888-1.615-5.157593-1.615-1.719198 0-2.865329.6516666-2.865329 1.8133333 0 3.7966667 9.484527 1.7566667 9.455587 8.0183333 0 3.1166667-2.75043 5.015-6.618625 5.015-2.750716 0-5.358452-1.105-7.191977-2.7483333l1.289398-2.5216667c1.805158 1.6433334 4.068482 2.5216667 5.959886 2.5216667 2.063037 0 3.295129-.765 3.295129-2.0966667 0-3.8816666-9.484527-1.7-9.484527-7.905 0-2.975 2.578796-4.84499997 6.389971-4.84499997 2.292264 0 4.527221.73666667 6.160458 1.78499997" mask="url(#a)"/><path d="m57.5072206 8.47163833-1.260745 1.24666667c1.0028654 1.5583333 1.3180516 3.5133333.6303725 5.3833333-1.1461318 3.1733334-4.6991404 4.845-7.9369627 3.7116667-.4584527-.17-.8882522-.3683333-1.260745-.6233333l-4.0401146 3.995-3.5243553-3.5133334c-1.6332378 1.0766667-3.7249284 1.3883334-5.7020057.7083334-3.3237823-1.19-5.04298-4.7883334-3.8395416-8.0466667.1719198-.51.4297994-.9633333.7163324-1.38833333l-1.5186247-1.50166667-.2865329.48166667c-1.5759312 2.55000003-2.4355301 5.49666663-2.4355301 8.52833333-.0286533 9.0383333 7.4212034 16.4333333 16.5616046 16.4333333h.0286533c9.1404011 0 16.5616046-7.3383333 16.5902579-16.3766666 0-3.0033334-.8309456-5.95-2.4068768-8.52833337z" mask="url(#a)"/><path d="m33.1519198 11.786695c-.4297995.5666667-.6876791 1.275-.6876791 2.04 0 1.8416667 1.5186246 3.3433333 3.3810888 3.3433333.773639 0 1.4899714-.255 2.0630373-.7083333z" mask="url(#a)"/><path d="m49.742149 16.1783617c.5444126.3683333 1.1747851.5666666 1.8911175.5666666 1.8624642 0 3.3810888-1.5016666 3.3810888-3.3433333 0-.68-.2005731-1.3316667-.5730659-1.87z" mask="url(#a)"/><path d="m32.234957 6.09166667 11.4613181 11.36166663 11.3180515-11.13499997c-3.0372492-3.00333333-7.1633237-4.73166666-11.461318-4.73166666h-.0286533c-4.269341 0-8.252149 1.58666666-11.2893983 4.505zm11.4613181 13.60000003-13.6962751-13.60000003.5444126-.56666667c3.3810888-3.54166667 7.9942693-5.525 12.9512894-5.525h.0286533c5.0143266 0 9.8280802 2.125 13.1805158 5.80833333l.5157593.56666667z" mask="url(#a)"/><path d="m28.5959312 28.44678-1.6045845-.1133333c-6.8194842-.425-16.217765-2.09695-22.29226361-7.5083334-3.75358166-3.3152833-4.46991404-6.46-4.49856733-6.6016666l-.20057307-.9636167h24.81375361l-.1432665.90695c-.1146132.8216667-.1719198 1.6716667-.1719198 2.49305 0 3.7402833 1.0888252 7.3666667 3.1805158 10.4552833z" mask="url(#a)"/><path d="m58.6246705 28.44678.8882521-1.3316667c2.0916906-3.0886166 3.1805158-6.68695 3.1805158-10.3983333 0-.85-.0573066-1.7283333-.1719198-2.55l-.1146132-.90695h24.8137536l-.200573.9636167c-.0286533.1416666-.7449857 3.2863833-4.4699141 6.6016666-6.0744985 5.4113834-15.5014326 7.0833334-22.3209169 7.5083334z" mask="url(#a)"/></g></svg>

<?xml version="1.0" encoding="UTF-8"?>
<svg width="200px" height="34px" viewBox="0 0 200 34" version="1.1" xmlns="http://www.w3.org/2000/svg" xmlns:xlink="http://www.w3.org/1999/xlink">
    <!-- Generator: Sketch 52.2 (67145) - http://www.bohemiancoding.com/sketch -->
    <title>Logo</title>
    <desc>Created with Sketch.</desc>
    <defs>
        <polygon id="path-1" points="0 33.8866667 199.885387 33.8866667 199.885387 -1.42108547e-14 0 -1.42108547e-14"></polygon>
    </defs>
    <g id="Designs" stroke="none" stroke-width="1" fill="none" fill-rule="evenodd">
        <g id="Home" transform="translate(-861.000000, -4289.000000)">
            <g id="JOIN-THE-WBTC-COMMUNITY" transform="translate(0.000000, 3815.000000)">
                <g id="SECTION---JOIN-THE-WBTC-COMMUNITY" transform="translate(130.000000, 85.000000)">
                    <g id="Logo-IDEX-Copy-2" transform="translate(720.000000, 356.000000)">
                        <g id="Logo" transform="translate(11.000000, 33.000000)">
                            <path d="M114.498453,18.2182767 L114.498453,24.6218933 C112.722235,25.9532767 110.086132,26.88856 107.678968,26.88856 C102.493009,26.88856 98.4526074,23.0349433 98.4526074,18.07661 C98.4526074,13.1182767 102.550315,9.32161 107.879542,9.32161 C110.401032,9.32161 112.893868,10.25661 114.641719,11.7582767 L112.951461,13.91161 C111.60447,12.6649433 109.713639,11.9282767 107.879542,11.9282767 C104.29788,11.9282767 101.490143,14.6199433 101.490143,18.07661 C101.490143,21.56161 104.326533,24.2532767 107.908195,24.2532767 C109.226533,24.2532767 110.687564,23.7999433 111.948596,23.06356 L111.948596,18.2182767 L114.498453,18.2182767 Z" id="Fill-1" fill="#282138"></path>
                            <polygon id="Fill-3" fill="#282138" points="132.149054 26.74678 122.779427 14.2801133 122.779427 26.74678 119.828138 26.74678 119.828138 9.37844667 122.750774 9.37844667 132.177708 21.8734467 132.177708 9.37844667 135.100344 9.37844667 135.100344 26.74678"></polygon>
                            <path d="M142.378338,18.04839 C142.378338,21.5050567 145.272321,24.2250567 148.710716,24.2250567 C152.149112,24.2250567 154.956848,21.5050567 154.956848,18.04839 C154.956848,14.5917233 152.149112,11.92839 148.710716,11.92839 C145.243668,11.92839 142.378338,14.6200567 142.378338,18.04839 M157.994384,18.04839 C157.994384,23.0067233 153.925616,26.8600567 148.682063,26.8600567 C143.438223,26.8600567 139.369742,23.0067233 139.369742,18.04839 C139.369742,13.0617233 143.438223,9.29339 148.682063,9.29339 C153.953983,9.29339 157.994384,13.0900567 157.994384,18.04839" id="Fill-5" fill="#282138"></path>
                            <path d="M174.240573,11.0216383 L173.008481,13.5999717 C171.088711,12.4666383 169.197593,11.9849717 167.850888,11.9849717 C166.131691,11.9849717 164.985559,12.6366383 164.985559,13.798305 C164.985559,17.5949717 174.470086,15.5549717 174.441146,21.8166383 C174.441146,24.933305 171.690716,26.8316383 167.822521,26.8316383 C165.071519,26.8316383 162.464069,25.7266383 160.630258,24.083305 L161.919656,21.5616383 C163.7251,23.2049717 165.988424,24.083305 167.879828,24.083305 C169.942579,24.083305 171.174957,23.318305 171.174957,21.9866383 C171.174957,18.1049717 161.69043,20.2866383 161.69043,14.0816383 C161.69043,11.1066383 164.269226,9.23663833 168.080115,9.23663833 C170.372378,9.23663833 172.607622,9.973305 174.240573,11.0216383" id="Fill-7" fill="#282138"></path>
                            <mask id="mask-2" fill="white">
                                <use xlink:href="#path-1"></use>
                            </mask>
                            <g id="Clip-10"></g>
                            <polygon id="Fill-9" fill="#282138" mask="url(#mask-2)" points="179.054441 26.7466667 182.005731 26.7466667 182.005731 9.37833333 179.054441 9.37833333"></polygon>
                            <path d="M199.684928,11.0216383 L198.45255,13.5999717 C196.533066,12.4666383 194.641662,11.9849717 193.294957,11.9849717 C191.575759,11.9849717 190.429628,12.6366383 190.429628,13.798305 C190.429628,17.5949717 199.914155,15.5549717 199.885215,21.8166383 C199.885215,24.933305 197.134785,26.8316383 193.26659,26.8316383 C190.515874,26.8316383 187.908138,25.7266383 186.074613,24.083305 L187.364011,21.5616383 C189.169169,23.2049717 191.432493,24.083305 193.323897,24.083305 C195.386934,24.083305 196.619026,23.318305 196.619026,21.9866383 C196.619026,18.1049717 187.134499,20.2866383 187.134499,14.0816383 C187.134499,11.1066383 189.713295,9.23663833 193.52447,9.23663833 C195.816734,9.23663833 198.051691,9.973305 199.684928,11.0216383" id="Fill-11" fill="#282138" mask="url(#mask-2)"></path>
                            <path d="M57.5072206,8.47163833 L56.2464756,9.718305 C57.249341,11.2766383 57.5645272,13.2316383 56.8768481,15.1016383 C55.7307163,18.2749717 52.1777077,19.9466383 48.9398854,18.813305 C48.4814327,18.643305 48.0516332,18.4449717 47.6791404,18.1899717 L43.6390258,22.1849717 L40.1146705,18.6716383 C38.4814327,19.748305 36.3897421,20.0599717 34.4126648,19.3799717 C31.0888825,18.1899717 29.3696848,14.5916383 30.5731232,11.333305 C30.745043,10.823305 31.0029226,10.3699717 31.2894556,9.94497167 L29.7708309,8.443305 L29.484298,8.92497167 C27.9083668,11.4749717 27.0487679,14.4216383 27.0487679,17.453305 C27.0201146,26.4916383 34.4699713,33.8866383 43.6103725,33.8866383 L43.6390258,33.8866383 C52.7794269,33.8866383 60.2006304,26.548305 60.2292837,17.5099717 C60.2292837,14.5066383 59.3983381,11.5599717 57.8224069,8.98163833 L57.5072206,8.47163833 Z" id="Fill-12" fill="#282138" mask="url(#mask-2)"></path>
                            <path d="M33.1519198,11.786695 C32.7221203,12.3533617 32.4642407,13.061695 32.4642407,13.826695 C32.4642407,15.6683617 33.9828653,17.1700283 35.8453295,17.1700283 C36.6189685,17.1700283 37.3353009,16.9150283 37.9083668,16.461695 L33.1519198,11.786695 Z" id="Fill-13" fill="#282138" mask="url(#mask-2)"></path>
                            <path d="M49.742149,16.1783617 C50.2865616,16.546695 50.9169341,16.7450283 51.6332665,16.7450283 C53.4957307,16.7450283 55.0143553,15.2433617 55.0143553,13.401695 C55.0143553,12.721695 54.8137822,12.0700283 54.4412894,11.531695 L49.742149,16.1783617 Z" id="Fill-14" fill="#282138" mask="url(#mask-2)"></path>
                            <path d="M32.234957,6.09166667 L43.6962751,17.4533333 L55.0143266,6.31833333 C51.9770774,3.315 47.8510029,1.58666667 43.5530086,1.58666667 L43.5243553,1.58666667 C39.2550143,1.58666667 35.2722063,3.17333333 32.234957,6.09166667 Z M43.6962751,19.6916667 L30,6.09166667 L30.5444126,5.525 C33.9255014,1.98333333 38.5386819,-1.42108547e-14 43.495702,-1.42108547e-14 L43.5243553,-1.42108547e-14 C48.5386819,-1.42108547e-14 53.3524355,2.125 56.7048711,5.80833333 L57.2206304,6.375 L43.6962751,19.6916667 Z" id="Fill-15" fill="#282138" mask="url(#mask-2)"></path>
                            <path d="M28.5959312,28.44678 L26.9913467,28.3334467 C20.1718625,27.9084467 10.7735817,26.2364967 4.69908309,20.8251133 C0.945501433,17.50983 0.229169054,14.3651133 0.200515759,14.2234467 L-5.73065903e-05,13.25983 L24.8136963,13.25983 L24.6704298,14.16678 C24.5558166,14.9884467 24.49851,15.8384467 24.49851,16.65983 C24.49851,20.4001133 25.5873352,24.0264967 27.6790258,27.1151133 L28.5959312,28.44678 Z" id="Fill-16" fill="#282138" mask="url(#mask-2)"></path>
                            <path d="M58.6246705,28.44678 L59.5129226,27.1151133 C61.6046132,24.0264967 62.6934384,20.4281633 62.6934384,16.71678 C62.6934384,15.86678 62.6361318,14.9884467 62.5215186,14.16678 L62.4069054,13.25983 L87.220659,13.25983 L87.020086,14.2234467 C86.9914327,14.3651133 86.2751003,17.50983 82.5501719,20.8251133 C76.4756734,26.2364967 67.0487393,27.9084467 60.229255,28.3334467 L58.6246705,28.44678 Z" id="Fill-17" fill="#282138" mask="url(#mask-2)"></path>
                        </g>
                    </g>
                </g>
            </g>
        </g>
    </g>
</svg>
